static/img/kroki/accf1817c4e8abb7093ed3a92249f4a4.svg

<?xml version="1.0" encoding="us-ascii" standalone="no"?><svg xmlns="http://www.w3.org/2000/svg" xmlns:xlink="http://www.w3.org/1999/xlink" contentStyleType="text/css" height="451px" preserveAspectRatio="none" style="width:516px;height:451px;" version="1.1" viewBox="0 0 516 451" width="516px" zoomAndPan="magnify"><defs/><g><!--class aws_bedrock_agent--><g id="elem_aws_bedrock_agent"><rect codeLine="23" fill="#3D176E" height="39.7891" id="aws_bedrock_agent" rx="2.5" ry="2.5" style="stroke:#000D19;stroke-width:0.5;" width="206" x="245.5" y="106.79"/><ellipse cx="260.5" cy="126.6845" fill="#ADD1B2" rx="11" ry="11" style="stroke:#181818;stroke-width:1.0;"/><path d="M263.4688,132.3252 Q262.8906,132.622 262.25,132.7627 Q261.6094,132.9189 260.9063,132.9189 Q258.4063,132.9189 257.0781,131.2783 Q255.7656,129.622 255.7656,126.497 Q255.7656,123.372 257.0781,121.7158 Q258.4063,120.0595 260.9063,120.0595 Q261.6094,120.0595 262.25,120.2158 Q262.9063,120.372 263.4688,120.6689 L263.4688,123.3877 Q262.8438,122.8095 262.25,122.5439 Q261.6563,122.2627 261.0313,122.2627 Q259.6875,122.2627 259,123.3408 Q258.3125,124.4033 258.3125,126.497 Q258.3125,128.5908 259,129.6689 Q259.6875,130.7314 261.0313,130.7314 Q261.6563,130.7314 262.25,130.4658 Q262.8438,130.1845 263.4688,129.6064 L263.4688,132.3252 Z " fill="#000000"/><text fill="#D9B8FF" font-family="Helvetica" font-size="17" lengthAdjust="spacing" textLength="164" x="279.5" y="132.5698">aws_bedrock_agent</text></g><!--class aws_bedrock_agent_version--><g id="elem_aws_bedrock_agent_version"><rect codeLine="26" fill="#3D176E" height="39.7891" id="aws_bedrock_agent_version" rx="2.5" ry="2.5" style="stroke:#000D19;stroke-width:0.5;" width="276" x="19.5" y="206.58"/><ellipse cx="34.5" cy="226.4745" fill="#ADD1B2" rx="11" ry="11" style="stroke:#181818;stroke-width:1.0;"/><path d="M37.4688,232.1152 Q36.8906,232.412 36.25,232.5527 Q35.6094,232.7089 34.9063,232.7089 Q32.4063,232.7089 31.0781,231.0683 Q29.7656,229.412 29.7656,226.287 Q29.7656,223.162 31.0781,221.5058 Q32.4063,219.8495 34.9063,219.8495 Q35.6094,219.8495 36.25,220.0058 Q36.9063,220.162 37.4688,220.4589 L37.4688,223.1777 Q36.8438,222.5995 36.25,222.3339 Q35.6563,222.0527 35.0313,222.0527 Q33.6875,222.0527 33,223.1308 Q32.3125,224.1933 32.3125,226.287 Q32.3125,228.3808 33,229.4589 Q33.6875,230.5214 35.0313,230.5214 Q35.6563,230.5214 36.25,230.2558 Q36.8438,229.9745 37.4688,229.3964 L37.4688,232.1152 Z " fill="#000000"/><text fill="#D9B8FF" font-family="Helvetica" font-size="17" lengthAdjust="spacing" textLength="234" x="53.5" y="232.3598">aws_bedrock_agent_version</text></g><!--class aws_bedrock_foundation_model--><g id="elem_aws_bedrock_foundation_model"><rect codeLine="29" fill="#3D176E" height="39.7891" id="aws_bedrock_foundation_model" rx="2.5" ry="2.5" style="stroke:#000D19;stroke-width:0.5;" width="310" x="199.5" y="7"/><ellipse cx="214.5" cy="26.8945" fill="#ADD1B2" rx="11" ry="11" style="stroke:#181818;stroke-width:1.0;"/><path d="M217.4688,32.5352 Q216.8906,32.832 216.25,32.9727 Q215.6094,33.1289 214.9063,33.1289 Q212.4063,33.1289 211.0781,31.4883 Q209.7656,29.832 209.7656,26.707 Q209.7656,23.582 211.0781,21.9258 Q212.4063,20.2695 214.9063,20.2695 Q215.6094,20.2695 216.25,20.4258 Q216.9063,20.582 217.4688,20.8789 L217.4688,23.5977 Q216.8438,23.0195 216.25,22.7539 Q215.6563,22.4727 215.0313,22.4727 Q213.6875,22.4727 213,23.5508 Q212.3125,24.6133 212.3125,26.707 Q212.3125,28.8008 213,29.8789 Q213.6875,30.9414 215.0313,30.9414 Q215.6563,30.9414 216.25,30.6758 Q216.8438,30.3945 217.4688,29.8164 L217.4688,32.5352 Z " fill="#000000"/><text fill="#D9B8FF" font-family="Helvetica" font-size="17" lengthAdjust="spacing" textLength="268" x="233.5" y="32.7798">aws_bedrock_foundation_model</text></g><!--class aws_bedrock_guardrail--><g id="elem_aws_bedrock_guardrail"><rect codeLine="32" fill="#3D176E" height="39.7891" id="aws_bedrock_guardrail" rx="2.5" ry="2.5" style="stroke:#000D19;stroke-width:0.5;" width="233" x="172" y="306.37"/><ellipse cx="187" cy="326.2645" fill="#ADD1B2" rx="11" ry="11" style="stroke:#181818;stroke-width:1.0;"/><path d="M189.9688,331.9052 Q189.3906,332.202 188.75,332.3427 Q188.1094,332.4989 187.4063,332.4989 Q184.9063,332.4989 183.5781,330.8583 Q182.2656,329.202 182.2656,326.077 Q182.2656,322.952 183.5781,321.2958 Q184.9063,319.6395 187.4063,319.6395 Q188.1094,319.6395 188.75,319.7958 Q189.4063,319.952 189.9688,320.2489 L189.9688,322.9677 Q189.3438,322.3895 188.75,322.1239 Q188.1563,321.8427 187.5313,321.8427 Q186.1875,321.8427 185.5,322.9208 Q184.8125,323.9833 184.8125,326.077 Q184.8125,328.1708 185.5,329.2489 Q186.1875,330.3114 187.5313,330.3114 Q188.1563,330.3114 188.75,330.0458 Q189.3438,329.7645 189.9688,329.1864 L189.9688,331.9052 Z " fill="#000000"/><text fill="#D9B8FF" font-family="Helvetica" font-size="17" lengthAdjust="spacing" textLength="191" x="206" y="332.1498">aws_bedrock_guardrail</text></g><!--class aws_iam_role--><g id="elem_aws_iam_role"><rect codeLine="35" fill="#3D176E" height="39.7891" id="aws_iam_role" rx="2.5" ry="2.5" style="stroke:#000D19;stroke-width:0.5;" width="157" x="7" y="7"/><ellipse cx="22" cy="26.8945" fill="#ADD1B2" rx="11" ry="11" style="stroke:#181818;stroke-width:1.0;"/><path d="M24.9688,32.5352 Q24.3906,32.832 23.75,32.9727 Q23.1094,33.1289 22.4063,33.1289 Q19.9063,33.1289 18.5781,31.4883 Q17.2656,29.832 17.2656,26.707 Q17.2656,23.582 18.5781,21.9258 Q19.9063,20.2695 22.4063,20.2695 Q23.1094,20.2695 23.75,20.4258 Q24.4063,20.582 24.9688,20.8789 L24.9688,23.5977 Q24.3438,23.0195 23.75,22.7539 Q23.1563,22.4727 22.5313,22.4727 Q21.1875,22.4727 20.5,23.5508 Q19.8125,24.6133 19.8125,26.707 Q19.8125,28.8008 20.5,29.8789 Q21.1875,30.9414 22.5313,30.9414 Q23.1563,30.9414 23.75,30.6758 Q24.3438,30.3945 24.9688,29.8164 L24.9688,32.5352 Z " fill="#000000"/><text fill="#D9B8FF" font-family="Helvetica" font-size="17" lengthAdjust="spacing" textLength="115" x="41" y="32.7798">aws_iam_role</text></g><!--class aws_kms_key--><g id="elem_aws_kms_key"><rect codeLine="38" fill="#3D176E" height="39.7891" id="aws_kms_key" rx="2.5" ry="2.5" style="stroke:#000D19;stroke-width:0.5;" width="158" x="209.5" y="406.16"/><ellipse cx="224.5" cy="426.0545" fill="#ADD1B2" rx="11" ry="11" style="stroke:#181818;stroke-width:1.0;"/><path d="M227.4688,431.6952 Q226.8906,431.992 226.25,432.1327 Q225.6094,432.2889 224.9063,432.2889 Q222.4063,432.2889 221.0781,430.6483 Q219.7656,428.992 219.7656,425.867 Q219.7656,422.742 221.0781,421.0858 Q222.4063,419.4295 224.9063,419.4295 Q225.6094,419.4295 226.25,419.5858 Q226.9063,419.742 227.4688,420.0389 L227.4688,422.7577 Q226.8438,422.1795 226.25,421.9139 Q225.6563,421.6327 225.0313,421.6327 Q223.6875,421.6327 223,422.7108 Q222.3125,423.7733 222.3125,425.867 Q222.3125,427.9608 223,429.0389 Q223.6875,430.1014 225.0313,430.1014 Q225.6563,430.1014 226.25,429.8358 Q226.8438,429.5545 227.4688,428.9764 L227.4688,431.6952 Z " fill="#000000"/><text fill="#D9B8FF" font-family="Helvetica" font-size="17" lengthAdjust="spacing" textLength="116" x="243.5" y="431.9398">aws_kms_key</text></g><!--link aws_bedrock_agent to aws_bedrock_agent_version--><g id="link_aws_bedrock_agent_aws_bedrock_agent_version"><path codeLine="41" d="M310.76,147.01 C277.28,164.15 233.9608,186.3358 200.5008,203.4658 " fill="none" id="aws_bedrock_agent-to-aws_bedrock_agent_version" style="stroke:#1A83AF;stroke-width:2.0;"/><polygon fill="#1A83AF" points="195.16,206.2,204.994,205.6592,199.6107,203.9215,201.3483,198.5381,195.16,206.2" style="stroke:#1A83AF;stroke-width:2.0;"/></g><!--link aws_bedrock_agent to aws_bedrock_guardrail--><g id="link_aws_bedrock_agent_aws_bedrock_guardrail"><path codeLine="42" d="M342.64,147.01 C335.52,170.5 323.14,211.35 312.5,246.37 C306.3,266.78 300.9391,284.4206 296.0691,300.4006 " fill="none" id="aws_bedrock_agent-to-aws_bedrock_guardrail" style="stroke:#1A83AF;stroke-width:2.0;"/><polygon fill="#1A83AF" points="294.32,306.14,300.7699,298.697,295.7776,301.3572,293.1174,296.3648,294.32,306.14" style="stroke:#1A83AF;stroke-width:2.0;"/></g><!--link aws_bedrock_agent to aws_kms_key--><g id="link_aws_bedrock_agent_aws_kms_key"><path codeLine="43" d="M365.21,146.84 C397.38,186.16 461.46,278.02 422.5,346.16 C406.42,374.29 381.4536,390.9448 353.6436,403.2948 " fill="none" id="aws_bedrock_agent-to-aws_kms_key" style="stroke:#1A83AF;stroke-width:2.0;"/><polygon fill="#1A83AF" points="348.16,405.73,358.0089,405.733,352.7297,403.7007,354.7619,398.4215,348.16,405.73" style="stroke:#1A83AF;stroke-width:2.0;"/></g><!--link aws_bedrock_agent_version to aws_bedrock_guardrail--><g id="link_aws_bedrock_agent_version_aws_bedrock_guardrail"><path codeLine="44" d="M183.38,246.8 C206.35,263.94 234.9127,285.2597 257.8627,302.3997 " fill="none" id="aws_bedrock_agent_version-to-aws_bedrock_guardrail" style="stroke:#1A83AF;stroke-width:2.0;"/><polygon fill="#1A83AF" points="262.67,305.99,257.8526,297.3997,258.6639,302.9981,253.0656,303.8094,262.67,305.99" style="stroke:#1A83AF;stroke-width:2.0;"/></g><!--link aws_bedrock_agent_version to aws_kms_key--><g id="link_aws_bedrock_agent_version_aws_kms_key"><path codeLine="45" d="M151.3,246.62 C144.48,271.39 136.7,315.03 154.5,346.16 C170.58,374.29 195.5464,390.9448 223.3564,403.2948 " fill="none" id="aws_bedrock_agent_version-to-aws_kms_key" style="stroke:#1A83AF;stroke-width:2.0;"/><polygon fill="#1A83AF" points="228.84,405.73,222.2381,398.4215,224.2703,403.7007,218.9911,405.733,228.84,405.73" style="stroke:#1A83AF;stroke-width:2.0;"/></g><!--link aws_bedrock_foundation_model to aws_bedrock_agent--><g id="link_aws_bedrock_foundation_model_aws_bedrock_agent"><path codeLine="46" d="M353.31,47.22 C352.26,64.36 351.0971,83.2912 350.0471,100.4212 " fill="none" id="aws_bedrock_foundation_model-to-aws_bedrock_agent" style="stroke:#1A83AF;stroke-width:2.0;"/><polygon fill="#1A83AF" points="349.68,106.41,354.2231,97.6716,349.9859,101.4194,346.2381,97.1821,349.68,106.41" style="stroke:#1A83AF;stroke-width:2.0;"/></g><!--link aws_bedrock_foundation_model to aws_bedrock_agent_version--><g id="link_aws_bedrock_foundation_model_aws_bedrock_agent_version"><path codeLine="47" d="M313.3,47.28 C286.84,61.18 252.98,81.82 228.5,106.79 C199.09,136.81 179.1578,175.772 167.9378,200.882 " fill="none" id="aws_bedrock_foundation_model-to-aws_bedrock_agent_version" style="stroke:#1A83AF;stroke-width:2.0;"/><polygon fill="#1A83AF" points="165.49,206.36,172.8136,199.7748,167.5298,201.795,165.5096,196.5112,165.49,206.36" style="stroke:#1A83AF;stroke-width:2.0;"/></g><!--link aws_bedrock_guardrail to aws_kms_key--><g id="link_aws_bedrock_guardrail_aws_kms_key"><path codeLine="48" d="M288.5,346.59 C288.5,363.73 288.5,382.64 288.5,399.78 " fill="none" id="aws_bedrock_guardrail-to-aws_kms_key" style="stroke:#1A83AF;stroke-width:2.0;"/><polygon fill="#1A83AF" points="288.5,405.78,292.5,396.78,288.5,400.78,284.5,396.78,288.5,405.78" style="stroke:#1A83AF;stroke-width:2.0;"/></g><!--link aws_iam_role to aws_bedrock_agent--><g id="link_aws_iam_role_aws_bedrock_agent"><path codeLine="49" d="M137.46,47.22 C183.57,64.36 244.946,87.1893 291.026,104.3193 " fill="none" id="aws_iam_role-to-aws_bedrock_agent" style="stroke:#1A83AF;stroke-width:2.0;"/><polygon fill="#1A83AF" points="296.65,106.41,289.6078,99.5247,291.9634,104.6678,286.8203,107.0233,296.65,106.41" style="stroke:#1A83AF;stroke-width:2.0;"/></g><!--link aws_iam_role to aws_bedrock_agent_version--><g id="link_aws_iam_role_aws_bedrock_agent_version"><path codeLine="50" d="M92.53,47.2 C106.3,84.98 134.5951,162.6229 148.3851,200.4529 " fill="none" id="aws_iam_role-to-aws_bedrock_agent_version" style="stroke:#1A83AF;stroke-width:2.0;"/><polygon fill="#1A83AF" points="150.44,206.09,151.1158,196.2644,148.7276,201.3924,143.5996,199.0042,150.44,206.09" style="stroke:#1A83AF;stroke-width:2.0;"/></g><!--SRC=[fP9HJy8m483VzokQy4p290gyc209qHTYn3TZbjjw7SssbbmB18t_tKrqpfKEr8U-t7tN- -xQbUJ8i5ZRFIkmY95CO3Afra1Gi2cHtirqhedrX00n7BMJSwtiIM011R9RpBTePG9jud4baqoXCUoYaRg194j9RnG_N6y9b2bJg6o3ckLWpDHQal76OaE6J-An46soVMbloCFH5JgO9exqYGm60nvEsiZ9LfrpryHIlY0BcqjRQ8kEfjFYW-gqh8Y6f3FeLzxhU0-SIvMooqRiuU142kb7VBa2hdSLBI0tpJR68g6s-pNEdAbmCkPYT1I-yy51KgsEmSv4CNBIIHP1Mlu9zXe4Rxvaj2s_jTJA1ucg3zYIY0hDCVTnwGQ84qW7a514f7DinxEYFBW_X5td_bCld8w7q_bp_zfl_Pl2sl2Sea-xmB-ll_Jn5n_hvwo-UoV_gJswp-ydxTIj7_WClJFPMkST]--></g></svg>

<svg xmlns="http://www.w3.org/2000/svg" width="516" height="451" viewBox="0 0 516 451"><rect width="206" height="39.789" x="245.5" y="106.79" fill="#3D176E" rx="2.5" ry="2.5" style="stroke:#000d19;stroke-width:.5"/><circle cx="260.5" cy="126.684" r="11" fill="#ADD1B2" style="stroke:#181818;stroke-width:1"/><path d="M263.469 132.325q-.578.297-1.219.438-.64.156-1.344.156-2.5 0-3.828-1.64-1.312-1.657-1.312-4.782t1.312-4.781q1.328-1.656 3.828-1.656.703 0 1.344.156.656.156 1.219.453v2.719q-.625-.579-1.219-.844-.594-.281-1.219-.281-1.344 0-2.031 1.078-.687 1.062-.687 3.156t.687 3.172q.688 1.062 2.031 1.062.625 0 1.219-.265.594-.281 1.219-.86z"/><text x="279.5" y="132.57" fill="#D9B8FF" font-family="Helvetica" font-size="17" textLength="164">aws_bedrock_agent</text><rect width="276" height="39.789" x="19.5" y="206.58" fill="#3D176E" rx="2.5" ry="2.5" style="stroke:#000d19;stroke-width:.5"/><circle cx="34.5" cy="226.475" r="11" fill="#ADD1B2" style="stroke:#181818;stroke-width:1"/><path d="M37.469 232.115q-.578.297-1.219.438-.64.156-1.344.156-2.5 0-3.828-1.64-1.312-1.657-1.312-4.782t1.312-4.781q1.328-1.656 3.828-1.656.703 0 1.344.156.656.156 1.219.453v2.719q-.625-.578-1.219-.844-.594-.281-1.219-.281-1.343 0-2.031 1.078-.687 1.062-.687 3.156t.687 3.172q.688 1.062 2.031 1.062.625 0 1.219-.265.594-.281 1.219-.86z"/><text x="53.5" y="232.36" fill="#D9B8FF" font-family="Helvetica" font-size="17" textLength="234">aws_bedrock_agent_version</text><rect width="310" height="39.789" x="199.5" y="7" fill="#3D176E" rx="2.5" ry="2.5" style="stroke:#000d19;stroke-width:.5"/><circle cx="214.5" cy="26.895" r="11" fill="#ADD1B2" style="stroke:#181818;stroke-width:1"/><path d="M217.469 32.535q-.578.297-1.219.438-.64.156-1.344.156-2.5 0-3.828-1.64-1.312-1.657-1.312-4.782t1.312-4.781q1.328-1.656 3.828-1.656.703 0 1.344.156.656.156 1.219.453v2.719q-.625-.578-1.219-.844-.594-.281-1.219-.281-1.344 0-2.031 1.078-.687 1.062-.687 3.156t.687 3.172q.688 1.062 2.031 1.062.625 0 1.219-.265.594-.281 1.219-.86z"/><text x="233.5" y="32.78" fill="#D9B8FF" font-family="Helvetica" font-size="17" textLength="268">aws_bedrock_foundation_model</text><rect width="233" height="39.789" x="172" y="306.37" fill="#3D176E" rx="2.5" ry="2.5" style="stroke:#000d19;stroke-width:.5"/><circle cx="187" cy="326.264" r="11" fill="#ADD1B2" style="stroke:#181818;stroke-width:1"/><path d="M189.969 331.905q-.578.297-1.219.438-.64.156-1.344.156-2.5 0-3.828-1.64-1.312-1.657-1.312-4.782t1.312-4.781q1.328-1.656 3.828-1.656.703 0 1.344.156.656.156 1.219.453v2.719q-.625-.579-1.219-.844-.594-.281-1.219-.281-1.344 0-2.031 1.078-.687 1.062-.687 3.156t.687 3.172q.688 1.062 2.031 1.062.625 0 1.219-.265.594-.281 1.219-.86z"/><text x="206" y="332.15" fill="#D9B8FF" font-family="Helvetica" font-size="17" textLength="191">aws_bedrock_guardrail</text><rect width="157" height="39.789" x="7" y="7" fill="#3D176E" rx="2.5" ry="2.5" style="stroke:#000d19;stroke-width:.5"/><circle cx="22" cy="26.895" r="11" fill="#ADD1B2" style="stroke:#181818;stroke-width:1"/><path d="M24.969 32.535q-.578.297-1.219.438-.64.156-1.344.156-2.5 0-3.828-1.64-1.312-1.657-1.312-4.782t1.312-4.781q1.328-1.656 3.828-1.656.703 0 1.344.156.656.156 1.219.453v2.719q-.625-.578-1.219-.844-.594-.281-1.219-.281-1.343 0-2.031 1.078-.687 1.062-.687 3.156t.687 3.172q.688 1.062 2.031 1.062.625 0 1.219-.265.594-.281 1.219-.86z"/><text x="41" y="32.78" fill="#D9B8FF" font-family="Helvetica" font-size="17" textLength="115">aws_iam_role</text><rect width="158" height="39.789" x="209.5" y="406.16" fill="#3D176E" rx="2.5" ry="2.5" style="stroke:#000d19;stroke-width:.5"/><circle cx="224.5" cy="426.055" r="11" fill="#ADD1B2" style="stroke:#181818;stroke-width:1"/><path d="M227.469 431.695q-.578.297-1.219.438-.64.156-1.344.156-2.5 0-3.828-1.64-1.312-1.657-1.312-4.782t1.312-4.781q1.328-1.656 3.828-1.656.703 0 1.344.156.656.156 1.219.453v2.719q-.625-.578-1.219-.844-.594-.281-1.219-.281-1.344 0-2.031 1.078-.687 1.062-.687 3.156t.687 3.172q.688 1.062 2.031 1.062.625 0 1.219-.265.594-.281 1.219-.86z"/><text x="243.5" y="431.94" fill="#D9B8FF" font-family="Helvetica" font-size="17" textLength="116">aws_kms_key</text><path fill="none" d="M310.76 147.01c-33.48 17.14-76.8 39.326-110.26 56.456" style="stroke:#1a83af;stroke-width:2"/><path fill="#1A83AF" d="m195.16 206.2 9.834-.54-5.383-1.738 1.737-5.384z" style="stroke:#1a83af;stroke-width:2"/><path fill="none" d="M342.64 147.01c-7.12 23.49-19.5 64.34-30.14 99.36-6.2 20.41-11.56 38.05-16.43 54.03" style="stroke:#1a83af;stroke-width:2"/><path fill="#1A83AF" d="m294.32 306.14 6.45-7.443-4.992 2.66-2.66-4.992z" style="stroke:#1a83af;stroke-width:2"/><path fill="none" d="M365.21 146.84c32.17 39.32 96.25 131.18 57.29 199.32-16.08 28.13-41.046 44.785-68.856 57.135" style="stroke:#1a83af;stroke-width:2"/><path fill="#1A83AF" d="m348.16 405.73 9.849.003-5.28-2.032 2.033-5.28z" style="stroke:#1a83af;stroke-width:2"/><path fill="none" d="M183.38 246.8c22.97 17.14 51.533 38.46 74.483 55.6" style="stroke:#1a83af;stroke-width:2"/><path fill="#1A83AF" d="m262.67 305.99-4.817-8.59.81 5.598-5.597.811z" style="stroke:#1a83af;stroke-width:2"/><path fill="none" d="M151.3 246.62c-6.82 24.77-14.6 68.41 3.2 99.54 16.08 28.13 41.046 44.785 68.856 57.135" style="stroke:#1a83af;stroke-width:2"/><path fill="#1A83AF" d="m228.84 405.73-6.602-7.309 2.032 5.28-5.279 2.032z" style="stroke:#1a83af;stroke-width:2"/><path fill="none" d="M353.31 47.22c-1.05 17.14-2.213 36.071-3.263 53.201" style="stroke:#1a83af;stroke-width:2"/><path fill="#1A83AF" d="m349.68 106.41 4.543-8.738-4.237 3.747-3.748-4.237z" style="stroke:#1a83af;stroke-width:2"/><path fill="none" d="M313.3 47.28c-26.46 13.9-60.32 34.54-84.8 59.51-29.41 30.02-49.342 68.982-60.562 94.092" style="stroke:#1a83af;stroke-width:2"/><path fill="#1A83AF" d="m165.49 206.36 7.324-6.585-5.284 2.02-2.02-5.284z" style="stroke:#1a83af;stroke-width:2"/><path fill="none" d="M288.5 346.59v53.19" style="stroke:#1a83af;stroke-width:2"/><path fill="#1A83AF" d="m288.5 405.78 4-9-4 4-4-4z" style="stroke:#1a83af;stroke-width:2"/><path fill="none" d="M137.46 47.22c46.11 17.14 107.486 39.97 153.566 57.1" style="stroke:#1a83af;stroke-width:2"/><path fill="#1A83AF" d="m296.65 106.41-7.042-6.885 2.355 5.143-5.143 2.355z" style="stroke:#1a83af;stroke-width:2"/><path fill="none" d="M92.53 47.2c13.77 37.78 42.065 115.423 55.855 153.253" style="stroke:#1a83af;stroke-width:2"/><path fill="#1A83AF" d="m150.44 206.09.676-9.826-2.388 5.128-5.128-2.388z" style="stroke:#1a83af;stroke-width:2"/></svg>
